!!!!SEGMENT: pl-wtm--r-1461--023_stefani-jozef--wszechstronne-cwiczenia-glosowe-molto-adagio.krn
!!!id: 18xx:2200
!!!COM: Stefani, Józef
!!!COM-rism: pe30024097
!!!CDT: 1800/04/16-1876/03/19
!!!CNT: Polish
!!!OTL: Wszechstronne ćwiczenia głosowe – Molto adagio
!!!PDT:
!!!SMS-siglum: PL-Wtm
!!!SMS-shelfmark: R 1461
!!!NIFC-rismID: 1001120710
!!!URL-scan: http://repozytorium.nifc.pl/skany/pl-wtm-nut--r1461
!!!ONB-nifc: UWAGA: skan 0020, s. 37 – 0022, s. 40
!!!SMS-variant:
!!!SMS-altvar:
**kern	**kern	**dynam	**kern	**dynam
*part3	*part2	*part2	*part1	*part1
*staff3	*staff2	*	*staff1	*
*I"Fortepian	*I"Fortepian	*	*I"Sopran/Tenor	*
*clefF4	*clefG2	*	*clefG2	*
*k[]	*k[]	*	*k[]	*
*M4/4	*M4/4	*	*M4/4	*
*met(c)	*met(c)	*	*met(c)	*
=1	=1	=1	=1	=1
*2\right	*	*	*	*
!	!	!	!LO:TX:t=P:problem:all\middle or right:global	!
[>2C 2CC\	[>2c [>2G< [>2E</	.	(<8c/L	.
!	!	!	!	!LO:HP:b
.	.	.	.	>
.	.	.	16qqd/LL	.
.	.	.	16qqc/	.
.	.	.	16qqB/JJ	.
.	.	.	16.c/L)	]
.	.	.	32d|</JJk	.
.	.	.	(<8e/L	.
!	!	!	!	!LO:HP:b
.	.	.	.	>
.	.	.	16qqf/LL	.
.	.	.	16qqe/	.
.	.	.	16qqd/JJ	.
.	.	.	16.e/L)	]
.	.	.	(<32f|</JJk	.
8C]L 8CC\	8c]L 8G<] 8E</]	.	2g/)	.
8C 8CC\	8c 8G< 8E<'>/	.	.	.
8C 8CC\	8c 8G< 8E<'>/	.	.	.
8BBJ 8BBB\	8eJ 8c 8G< 8E<'>/	.	.	.
=2	=2	=2	=2	=2
[>2C [<2CC\	[>2c [>2G< [>2E</	.	(<8c/L	.
!	!	!	!	!LO:HP:b
.	.	.	.	>
.	.	.	16qqB/LL	.
.	.	.	16qqc/	.
.	.	.	16qqd/JJ	.
.	.	.	16.c/L)	]
.	.	.	32d|</JJk	.
.	.	.	(<8e/L	.
!	!	!	!	!LO:HP:b
.	.	.	.	>
.	.	.	16qqd/LL	.
.	.	.	16qqe/	.
.	.	.	16qqf/JJ	.
.	.	.	16.e/L)	]
.	.	.	(<32f|</JJk	.
8C]L 8CC\]	8c]L 8G<] 8E</]	.	2g/)	.
8C 8CC\	8c 8G< 8E<'>/	.	.	.
8C 8CC\	8c 8G< 8E<'>/	.	.	.
8CJ 8CC\	8eJ 8c 8G<'>/	.	.	.
!!LO:LB:g=original
=3	=3	=3	=3	=3
2F 2FF\	[>2d [>2A</	.	(<8d/L	.
!	!	!	!	!LO:HP:b
.	.	.	.	>
.	.	.	16qqe/LL	.
.	.	.	16qqd/	.
.	.	.	16qqc#X/JJ	.
.	.	.	16.d/L)	]
.	.	.	32e|</JJk	.
.	.	.	(<8f/L	.
!	!	!	!	!LO:HP:b
.	.	.	.	>
.	.	.	16qqg/LL	.
.	.	.	16qqf/	.
.	.	.	16qqe/JJ	.
.	.	.	16.f/L)	]
.	.	.	(<32g|</JJk	.
8FL 8FF\	(>8d]L 8A</]	.	2a/)	.
8F 8FF\	8d 8A<'>/	.	.	.
8F 8FF\	8d 8A<'>/	.	.	.
8DJ 8DD\	8fJ 8d 8A<'>/)	.	.	.
=4	=4	=4	=4	=4
[>2F [>2FF\	[>2d [>2A</	.	(<8d/L	.
!	!	!	!	!LO:HP:b
.	.	.	.	>
.	.	.	16qqc#X/LL	.
.	.	.	16qqd/	.
.	.	.	16qqe/JJ	.
.	.	.	16.d/L)	]
.	.	.	32e|</JJk	.
.	.	.	(<8f/L	.
!	!	!	!	!LO:HP:b
.	.	.	.	>
.	.	.	16qqe/LL	.
.	.	.	16qqf/	.
.	.	.	16qqg/JJ	.
.	.	.	16.f/L)	]
.	.	.	(<32g|</JJk	.
8F]L 8FF\]	8d]L 8A</]	.	2a/)	.
8F 8FF\	8d 8A<'>/	.	.	.
8F 8FF\	8d 8A<'>/	.	.	.
8DJ 8DD\	8fJ 8d 8A<'>/	.	.	.
!!LO:LB:g=original
=5	=5	=5	=5	=5
[>2G [<2GG\	[>2e [>2B-X/	.	(<8e/L	.
!	!	!	!	!LO:HP:b
.	.	.	.	>
.	.	.	16qqf/LL	.
.	.	.	16qqe/	.
.	.	.	16qqd#X/JJ	.
.	.	.	16.e/L)	]
.	.	.	32f|</JJk	.
.	.	.	(<8g/L	.
!	!	!	!	!LO:HP:b
.	.	.	.	>
.	.	.	16qqa/LL	.
.	.	.	16qqg/	.
.	.	.	16qqf#X/JJ	.
.	.	.	16.g/L	]
.	.	.	(<32a|</JJk)	.
8G]L 8GG\]	8e]L 8B-/]	.	2b-X/)	.
8G 8GG\	8e 8B-'>/	.	.	.
8G 8GG\	8e 8B-'>/	.	.	.
8EJ 8EE\	8gJ 8B-'>/	.	.	.
=6	=6	=6	=6	=6
[>2G [<2GG\	[>2e [>2B-X/	.	(<8e/L	.
!	!	!	!	!LO:HP:b
.	.	.	.	>
.	.	.	16qqd#X/LL	.
.	.	.	16qqe/	.
.	.	.	16qqf/JJ	.
.	.	.	16.e/L)	]
.	.	.	32f|</JJk	.
.	.	.	(<8g/L	.
!	!	!	!	!LO:HP:b
.	.	.	.	>
.	.	.	16qqf#X/LL	.
.	.	.	16qqg/	.
.	.	.	16qqa/JJ	.
.	.	.	16.g/L)	]
.	.	.	(<32a|</JJk	.
8G]L 8GG\]	8e]L 8B-/]	.	2b-X/)	.
8G 8GG\	8e 8B-'>/	.	.	.
8G 8GG\	8e 8B-'>/	.	.	.
8EJ 8EE\	8gJ 8B-'>/	.	.	.
!!LO:PB:g=original
=7	=7	=7	=7	=7
[>2A [<2AA\	[>2f [<2c/	.	(<8f/L	.
!	!	!	!	!LO:HP:b
.	.	.	.	>
.	.	.	16qqg/LL	.
.	.	.	16qqf/	.
.	.	.	16qqe/JJ	.
.	.	.	16.f/L)	]
.	.	.	32g|</JJk	.
.	.	.	(<8a/L	.
!	!	!	!	!LO:HP:b
.	.	.	.	>
.	.	.	16qqb-X/LL	.
.	.	.	16qqa/	.
.	.	.	16qqg/JJ	.
.	.	.	16.a/L)	]
.	.	.	(>32b-y|</JJk	.
*	*	*	*2\right	*
8A]L 8AA\]	8f]L 8c/]	.	2cc\)	.
8A 8AA\	8f 8c'>/	.	.	.
8A 8AA\	8f 8c'>/	.	.	.
8FJ 8FF\	8aJ 8f 8c'>/	.	.	.
=8	=8	=8	=8	=8
[>2A [<2AA\	[>2f [>2c/	.	(<8f/L	.
!	!	!	!	!LO:HP:b
.	.	.	.	>
.	.	.	16qqe/LL	.
.	.	.	16qqf/	.
.	.	.	16qqg/JJ	.
.	.	.	16.f/L)	]
.	.	.	32g|</JJk	.
.	.	.	(<8a/L	.
!	!	!	!	!LO:HP:b
.	.	.	.	>
.	.	.	16qqg/LL	.
.	.	.	16qqa/	.
.	.	.	16qqb-X/JJ	.
.	.	.	16.a/L)	]
.	.	.	(>32b-y|</JJk	.
8A]L 8AA\]	8f]L 8c/]	.	2cc\)	.
8A 8AA\	8f 8c'>/	.	.	.
8A 8AA\	8f 8c'>/	.	.	.
8FJ 8FF\	8aJ 8f 8c'>/	.	.	.
!!LO:LB:g=original
=9	=9	=9	=9	=9
2B-X 2BB-X\	2g 2d/	.	(<8g/L	.
!	!	!	!	!LO:HP:b
.	.	.	.	>
!	!	!	!LO:TX:t=P:problem:ołówkiem dopisany bemol przy 16qqa	!
.	.	.	16qqa/LL	.
.	.	.	16qqg/	.
.	.	.	16qqf#X/JJ	.
.	.	.	16.g/L	]
.	.	.	32a|</JJk)	.
.	.	.	(>8b-\L	.
!	!	!	!	!LO:HP:b
.	.	.	.	>
.	.	.	32qqcc/LL	.
.	.	.	32qqb-/	.
.	.	.	32qqa/JJ	.
.	.	.	16.b-\L	]
.	.	.	(>32cc|>\JJk)	.
8B-L 8BB-\	8gL 8d/	.	2dd\)	.
8B- 8BB-\	8g 8d'>/	.	.	.
8B- 8BB-\	8g 8d'>/	.	.	.
8GJ 8GG\	8b-XJ 8g 8d'>/	.	.	.
=10	=10	=10	=10	=10
[>2B-X [<2BB-X\	[>2g [>2d/	.	(<8g/L	.
!	!	!	!	!LO:HP:b
.	.	.	.	>
.	.	.	16qqf#X/LL	.
.	.	.	16qqg/	.
.	.	.	16qqa/JJ	.
.	.	.	16.g/L)	]
.	.	.	32a|</JJk	.
.	.	.	(>8b-X\L	.
!	!	!	!	!LO:HP:b
.	.	.	.	>
.	.	.	32qqa/LL	.
.	.	.	32qqb-/	.
.	.	.	32qqcc/JJ	.
.	.	.	16.b-\L	]
.	.	.	(>32cc|>\JJk)	.
8B-]L 8BB-\]	8g]L 8d/]	.	2dd\)	.
8B- 8BB-\	8g 8d'>/	.	.	.
8B- 8BB-\	8g 8d'>/	.	.	.
8GJ 8GG\	8b-XJ 8g 8d'>/	.	.	.
!!LO:LB:g=original
=11	=11	=11	=11	=11
[>2c [<2C\	[>2a [>2e-X/	.	(<8a/L	.
.	.	.	16qqb-X/LL	.
.	.	.	16qqa/	.
.	.	.	16qqg#X/JJ	.
.	.	.	16.a/L)	.
.	.	.	32b-y|</JJk	.
.	.	.	(>8cc\L	.
.	.	.	32qqdd/LL	.
.	.	.	32qqcc/	.
.	.	.	32qqbn/JJ	.
.	.	.	16.cc\L)	.
.	.	.	(>32dd|>\JJk	.
8c]L 8C\]	8a]L 8e-/]	.	2ee-X\)	.
8c 8C\	8a 8e-'>/	.	.	.
8c 8C\	8a 8e-'>/	.	.	.
8AJ 8AA\	8ccJ 8a 8e-'>/	.	.	.
=12	=12	=12	=12	=12
[>2c [<2C\	[>2a [>2e-X/	.	(<8a/L	.
.	.	.	16qqg#X/LL	.
.	.	.	16qqa/	.
.	.	.	16qqb-X/JJ	.
.	.	.	16.a/L)	.
.	.	.	32b-y|</JJk	.
.	.	.	(>8cc\L	.
.	.	.	32qqbn/LL	.
.	.	.	32qqcc/	.
.	.	.	32qqdd/JJ	.
.	.	.	16.cc\L	.
.	.	.	(>)32dd|>\JJk	.
8c]L 8C\]	8a]L 8e-/]	.	2ee-X\)	.
8c 8C\	8a 8e-'>/	.	.	.
8c 8C\	8a 8e-'>/	.	.	.
8AJ 8AA\	8ccJ 8a 8e-'>/	.	.	.
!!LO:LB:g=original
=13	=13	=13	=13	=13
[>2D [>2DD/	[>2b-X [>2f/	.	(>8b-X\L	.
!	!	!	!	!LO:HP:b
.	.	.	.	>
.	.	.	32qqcc/LL	.
.	.	.	32qqb-/	.
.	.	.	32qqa/JJ	.
.	.	.	16.b-\L)	]
.	.	.	32cc|>\JJk	.
.	.	.	(>8dd\L	.
!	!	!	!	!LO:HP:b
.	.	.	.	>
.	.	.	32qqee-X/LL	.
.	.	.	32qqdd/	.
.	.	.	32qqcc/JJ	.
.	.	.	16.dd\L)	]
.	.	.	(>32ee-y|>\JJk	.
8D]L 8DD/]	8b-]L 8f/]	.	2ff\)	.
8D 8DD/	8b- 8f'>/	.	.	.
8D 8DD/	8b- 8f'>/	.	.	.
8BB-XJ 8BBB-X/	8ddJ 8b- 8f'>/	.	.	.
=14	=14	=14	=14	=14
[>2D [<2DD/	[>2b-X [>2f/	.	(>8b-X\L	.
!	!	!	!	!LO:HP:b
.	.	.	.	>
.	.	.	32qqa/LL	.
.	.	.	32qqb-/	.
.	.	.	32qqcc/JJ	.
.	.	.	16.b-\L)	]
.	.	.	32cc|>\JJk	.
.	.	.	(>8dd\L	.
!	!	!	!	!LO:HP:b
.	.	.	.	>
.	.	.	32qqcc/LL	.
.	.	.	32qqdd/	.
.	.	.	32qqee-X/JJ	.
.	.	.	16.dd\L	]
.	.	.	(>32ee-y|>\JJk)	.
8D]L 8DD/]	8b-]L 8f/]	.	2ff\)	.
8D 8DD/	8b- 8f'>/	.	.	.
8D 8DD/	8b- 8f'>/	.	.	.
8BB-XJ 8BBB-X/	8ddJ 8b- 8f'>/	.	.	.
!!LO:PB:g=original
=15	=15	=15	=15	=15
[>2E-X [<2EE-X/	[>2cc [>2g/	.	(>8cc\L	.
!	!	!	!	!LO:HP:b
.	.	.	.	>
.	.	.	32qqdd/LL	.
.	.	.	32qqcc/	.
.	.	.	32qqbn/JJ	.
.	.	.	16.cc\L)	]
.	.	.	32dd|>\JJk	.
.	.	.	(>8ee-X\L	.
!	!	!	!	!LO:HP:b
.	.	.	.	>
.	.	.	32qqff/LL	.
.	.	.	32qqee-/	.
.	.	.	32qqdd/JJ	.
.	.	.	16.ee-\L)	]
.	.	.	(>32ff|>\JJk	.
8E-]L 8EE-/]	8cc]L 8g/]	.	2gg\)	.
8E- 8EE-/	8cc 8g'>/	.	.	.
8E- 8EE-/	8cc 8g'>/	.	.	.
8CJ 8CC/	8ee-XJ 8g'>/	.	.	.
=16	=16	=16	=16	=16
[>2E-X [<2EE-X/	[>2cc [<2g/	.	(>8cc\L	.
!	!	!	!	!LO:HP:b
.	.	.	.	>
.	.	.	32qqbn/LL	.
.	.	.	32qqcc/	.
.	.	.	32qqdd/JJ	.
.	.	.	16.cc\L)	]
.	.	.	32dd|>\JJk	.
.	.	.	(>8ee-X\L	.
!	!	!	!	!LO:HP:b
.	.	.	.	>
.	.	.	32qqdd/LL	.
.	.	.	32qqee-/	.
.	.	.	32qqff/JJ	.
.	.	.	16.ee-\L)	]
.	.	.	(>32ff|>\JJk	.
8E-]L 8EE-/]	8cc]L 8g/]	.	2gg\)	.
8E- 8EE-/	8cc 8g'>/	.	.	.
8E- 8EE-/	8cc 8g'>/	.	.	.
8CJ 8CC/	8ee-XJ 8g'>/	.	.	.
!!LO:LB:g=original
=17	=17	=17	=17	=17
*	*2\right	*	*	*
[>2F [<2FF/	[>2dd [>2a-X\	.	(>8dd\L	.
!	!	!	!	!LO:HP:b
.	.	.	.	>
.	.	.	32qqee-X/LL	.
.	.	.	32qqdd/	.
.	.	.	32qqcc/JJ	.
.	.	.	16.dd\L)	]
.	.	.	32ee-y|>\JJk	.
.	.	.	(>8ff\L	.
!	!	!	!	!LO:HP:b
.	.	.	.	>
.	.	.	32qqgg/LL	.
.	.	.	32qqff/	.
.	.	.	32qqeen/JJ	.
.	.	.	16.ff\L	]
.	.	.	(>32gg|>\JJk)	.
8F]L 8FF/]	8dd]L 8a-\]	.	2aa-X\)	.
8F 8FF/	8dd 8a-'>\	.	.	.
8F 8FF/	8dd 8a-'>\	.	.	.
8DJ 8DD/	8ffJ 8a-'>\	.	.	.
=18	=18	=18	=18	=18
[>2F [<2FF/	[>2dd [>2a-X\	.	(>8dd\L	.
!	!	!	!	!LO:HP:b
.	.	.	.	>
.	.	.	32qqcc/LL	.
.	.	.	32qqdd/	.
.	.	.	32qqee-X/JJ	.
.	.	.	16.dd\L)	]
.	.	.	32ee-y|>\JJk	.
.	.	.	(8ff\L	.
!	!	!	!	!LO:HP:b
.	.	.	.	>
.	.	.	32qqeen/LL	.
.	.	.	32qqff/	.
.	.	.	32qqgg/JJ	.
.	.	.	16.ff\L	]
.	.	.	(>32gg|>\JJk	.
8F]L 8FF/]	8dd]L 8a-X\]	.	2aa-X\))	.
8F 8FF/	8dd 8a-'>\	.	.	.
8F 8FF/	8dd 8a-'>\	.	.	.
8DJ 8DD/	8ffJ 8a-'>\	.	.	.
!!LO:LB:g=original
=19	=19	=19	=19	=19
[>2G [<2GG\	[>2ee-X [>2b-X\	.	(>8ee-X\L	.
!	!	!	!	!LO:HP:b
.	.	.	.	>
.	.	.	32qqff/LL	.
.	.	.	32qqee-/	.
.	.	.	32qqdd/JJ	.
.	.	.	16.ee-\L)	]
.	.	.	32ff|>\JJk	.
.	.	.	(>8gg\L	.
!	!	!	!	!LO:HP:b
.	.	.	.	>
.	.	.	32qqaa-/LL	.
.	.	.	32qqgg/	.
.	.	.	32qqff/JJ	.
.	.	.	16.gg\L)	]
.	.	.	(>32aa-y|>\JJk	.
8G]L 8GG\]	8ee-]L 8b-\]	.	2bb-X\)	.
8G 8GG\	8ee- 8b-'>\	.	.	.
8G 8GG\	8ee- 8b-'>\	.	.	.
8E-XJ 8EE-X\	8ggJ 8b-'>\	.	.	.
=20	=20	=20	=20	=20
[>2G [<2GG\	[>2ee-X [>2b-X\	.	(>8ee-X\L	.
!	!	!	!	!LO:HP:b
.	.	.	.	>
.	.	.	32qqdd/LL	.
.	.	.	32qqee-/	.
.	.	.	32qqff/JJ	.
.	.	.	16.ee-\L)	]
.	.	.	32ff|>\JJk	.
.	.	.	(>8gg\L	.
!	!	!	!	!LO:HP:b
.	.	.	.	>
.	.	.	32qqff/LL	.
.	.	.	32qqgg/	.
.	.	.	32qqaa-X/JJ	.
.	.	.	16.gg\L	]
.	.	.	(>)32aa-y|>\JJk	.
8G]L 8GG\]	8ee-]L 8b-\]	.	2bb-X\)	.
8G 8GG\	8ee- 8b-'>\	.	.	.
8G 8GG\	8ee- 8b-'>\	.	.	.
8E-XJ 8EE-X\	8ggJ 8b-'>\	.	.	.
!!LO:LB:g=original
=21	=21	=21	=21	=21
[>2A-X [<2AA-X\	[>2ff [>2cc\	.	(>8ff\L	.
!	!	!	!	!LO:HP:b
.	.	.	.	>
.	.	.	32qqgg/LL	.
.	.	.	32qqff/	.
.	.	.	32qqeen/JJ	.
.	.	.	16.ff\L)	]
.	.	.	32gg|>\JJk	.
.	.	.	(>8aa-X\L	.
!	!	!	!	!LO:HP:b
.	.	.	.	>
.	.	.	32qqbb-X/LL	.
.	.	.	32qqaa-/	.
.	.	.	32qqgg/JJ	.
.	.	.	16.aa-\L)	]
.	.	.	(>32bb-y|>\JJk	.
8A-]L 8AA-\]	8ff]L 8cc\]	.	2ccc\)	.
8A- 8AA-\	8ff 8cc'>\	.	.	.
8A- 8AA-\	8ff 8cc'>\	.	.	.
8FJ 8FF\	8aa-XJ 8cc'>\	.	.	.
=22	=22	=22	=22	=22
[>2A-X [<2AA-X\	[>2ff [>2cc\	.	(>8ff\L	.
!	!	!	!	!LO:HP:b
.	.	.	.	>
.	.	.	32qqeen/LL	.
.	.	.	32qqff/	.
.	.	.	32qqgg/JJ	.
.	.	.	16.ff\L)	]
.	.	.	(>32gg|>\JJk	.
.	.	.	8aa-X\L	.
!	!	!	!	!LO:HP:b
.	.	.	.	>
.	.	.	32qqgg/LL	.
.	.	.	32qqaa-/	.
.	.	.	32qqbb-X/JJ	.
.	.	.	16.aa-\L)	]
.	.	.	(>32bb-y|>\JJk	.
8A-]L 8AA-\]	8ff]L 8cc\]	.	2ccc\)	.
8A- 8AA-\	8ff 8cc'>\	.	.	.
8A- 8AA-\	8ff 8cc'>\	.	.	.
8FJ 8FF\	8aa-XJ 8cc'>\	.	.	.
!!LO:PB:g=original
=23	=23	=23	=23	=23
!	!	!LO:DY:b:rj	!	!
8F#X 8FF#X/	8ee-X 8cc 8a\	f	(>8ee-X\L	.
.	.	.	32qqff/LL	.
.	.	.	32qqee-/	.
.	.	.	32qqdd/JJ	.
8r	8r	.	16.ee-\L)	.
.	.	.	32cc|>\JJk	.
8F# 8FF#/	8ee- 8cc 8a\	.	(>8ee-\L	.
.	.	.	32qqdd/LL	.
.	.	.	32qqee-/	.
.	.	.	32qqff/JJ	.
8r	8r	.	16.ee-\L)	.
.	.	.	32cc|>\JJk	.
8G 8GG\	8een 8cc 8g\	.	(>8gg\L	.
.	.	.	32qqaa/LL	.
.	.	.	32qqgg/	.
.	.	.	32qqff#X/JJ	.
8r	8r	.	16.gg\L)	.
.	.	.	32ffn|>\JJk	.
8G 8GG\	8ee 8cc 8g\	.	(>8een\L	.
.	.	.	32qqdd#X/LL	.
.	.	.	32qqee/	.
.	.	.	32qqff/JJ	.
8r	8r	.	16.ee\L)	.
.	.	.	32ddn|>\JJk	.
=24	=24	=24	=24	=24
!	!	!	!	!LO:HP:b
4G 4GG\	4cc 4g 4e/	.	(>[>4cc\	<
4r	4r	.	16cc/LL]	.
.	.	.	16g/	.
.	.	.	16f#X/	.
.	.	.	16g/JJ	.
!	!	!	!	!LO:HP:b
2G 2GG\	2b 2g 2f/	.	4..ee\	[ >
.	.	.	16dd\)	]]
!!LO:LB:g=original
=25	=25	=25	=25	=25
4G 4C\	4cc 4g 4e/	.	4cc\	.
4r	4r	.	4r	.
2r	2r	.	2r	.
==	==	==	==	==
*-	*-	*-	*-	*-
!!!system-decoration: s1{(s2,s3)}
!!!RDF**kern: | = vertical stroke
!!!RDF**kern: > = above
!!!RDF**kern: < = below
!!!EED: Antoni Szymański
!!!EST: 2021-06-04
!!!ENC: Tomasz Grochalski
!!!END: 2021-05-18
